neru-light-classic/22x22/panel/fusion-icon-panel.svg

<?xml version="1.0" encoding="UTF-8" standalone="no"?>
<svg
   xmlns:dc="http://purl.org/dc/elements/1.1/"
   xmlns:cc="http://creativecommons.org/ns#"
   xmlns:rdf="http://www.w3.org/1999/02/22-rdf-syntax-ns#"
   xmlns:svg="http://www.w3.org/2000/svg"
   xmlns="http://www.w3.org/2000/svg"
   xmlns:sodipodi="http://sodipodi.sourceforge.net/DTD/sodipodi-0.dtd"
   xmlns:inkscape="http://www.inkscape.org/namespaces/inkscape"
   width="22"
   height="22"
   version="1"
   id="svg7"
   sodipodi:docname="fusion-icon-panel.svg"
   inkscape:version="0.92.4 5da689c313, 2019-01-14">
  <metadata
     id="metadata11">
    <rdf:RDF>
      <cc:Work
         rdf:about="">
        <dc:format>image/svg+xml</dc:format>
        <dc:type
           rdf:resource="http://purl.org/dc/dcmitype/StillImage" />
      </cc:Work>
    </rdf:RDF>
  </metadata>
  <sodipodi:namedview
     pagecolor="#ffffff"
     bordercolor="#666666"
     borderopacity="1"
     objecttolerance="10"
     gridtolerance="10"
     guidetolerance="10"
     inkscape:pageopacity="0"
     inkscape:pageshadow="2"
     inkscape:window-width="640"
     inkscape:window-height="515"
     id="namedview9"
     showgrid="false"
     inkscape:zoom="10.727273"
     inkscape:cx="11"
     inkscape:cy="11"
     inkscape:window-x="0"
     inkscape:window-y="28"
     inkscape:window-maximized="0"
     inkscape:current-layer="svg7" />
  <defs
     id="defs3">
    <style
       id="current-color-scheme"
       type="text/css">
   .ColorScheme-Text { color:#1e333d; } .ColorScheme-Highlight { color:#3fb7ff; }
  </style>
  </defs>
  <path
     style="fill:#1e333d;fill-opacity:1"
     class="ColorScheme-Text"
     d="m3.8008 3c-0.4432 0-0.8008 0.3576-0.8008 0.8008v14.398c0 0.443 0.3576 0.801 0.8008 0.801h7.9043 3.3301 3.1641c0.443 0 0.801-0.358 0.801-0.801v-14.398c0-0.4434-0.358-0.801-0.801-0.801zm1.1992 2h12.033l-0.015 12.018h-3.018l-4-6.018h4l-8-5v9l2.5-3.5 2.5 5.5176h-6.0098z"
     id="path5" />
</svg>

<svg xmlns="http://www.w3.org/2000/svg" width="22" height="22" version="1" id="svg7"><defs id="defs3"><style id="current-color-scheme" type="text/css"></style></defs><path d="M3.8 3a.8.8 0 0 0-.8.8V18.2a.8.8 0 0 0 .8.8H18.2a.8.8 0 0 0 .801-.8V3.8A.8.8 0 0 0 18.2 3zM5 5h12.033l-.015 12.018H14L10 11h4L6 6v9l2.5-3.5 2.5 5.518H4.99z" id="path5" fill="#1e333d" fill-opacity="1" color="#1e333d"/></svg>
